X: 44
T: Three Cheers for Serendipity!
C: Anselm Lingau
R: strathspey
B: Anselm Lingau "Nine Weddings (And No Funeral)" p.7
F: http://www.anselms.net/SCD/wbook/wbook.pdf
Z: 2009 John Chambers <jc:trillian.mit.edu>
M: C
L: 1/16
K: D
A4 \
| "D"dA3  A4 a3f df3 | "Em"eg3 B2e2 "A"d2c2 B2A2 \
| "G"Bd3 d3B "D"Af3 d3A | "Em"Be3 g3f "A"efed cABc |
y4 \
| "D"dA3  A4 a3f df3 | "Em"eg3 B3e "A"d2c2 B2A2 \
| "G"Bd3 d3B "D"Af3 Ad3 | "A7"cA3 f3e "D"d2 |]
f2g2 \
| "D"a4 fd3 "A7"g4 ec3 | "Bm"f4 dB3 "A"e3d cA3 \
| "G"B4 GB3 "D/F#"A4 f2d2 | "Em"Be3 g3f "A"efed "A7"cABc |
y4 \
| "D"d4 fa3 "A"c4 ea3 | "G"B4 d2B2 "D"A3G FD3 \
| "G"Bd3 d3B "D"Af3 Ad3 | "A7"cA3 f3e "D"d2 |]
%%sep 3 1 500
